X:745
T:Branles de villages 1
D:UGB
M:4/4
O:France
R:Branle
Z:Richard Robinson 
%%TUNEURL: http://www.leeds.ac.uk/music/Info/RRTuneBk/gettune/00000aa5.html
%%ID:00000aa5
K:G
dd|\
ge dc|B2c2|d2dd|BG dd|ge dc|B2c2|B2Ad|G2::
GA|\
BA/B/ cc|BA B/c/d|G/A/B A2|A2GA|\
BA/B/ cc|BA B/c/d|G/A/B A2|G2:|
